tools/download-figma-icons/icons/action/charging-station.svg

<svg width="24" height="24" viewBox="0 0 24 24" fill="none" xmlns="http://www.w3.org/2000/svg">
<path fill-rule="evenodd" clip-rule="evenodd" d="M3 22H14V4.003C14 2.898 13.102 2 11.997 2H4.999C3.896 2 3 2.897 3 3.999V22ZM18.673 3.221L22.673 6.86C22.881 7.049 23 7.318 23 7.6V18.961C23 20.615 21.654 21.961 20 21.961C18.346 21.961 17 20.615 17 18.961H16V23C16 23.552 15.553 24 15 24H2C1.447 24 1 23.552 1 23V3.999C1 1.794 2.794 0 4.999 0H11.997C14.204 0 16 1.796 16 4.003V16.961H17C18.103 16.961 19 17.858 19 18.961C19 19.512 19.448 19.961 20 19.961C20.552 19.961 21 19.512 21 18.961V10.961C19.897 10.959 19 10.062 19 8.958V6.223L17.327 4.701C16.919 4.329 16.889 3.697 17.261 3.288C17.633 2.88 18.266 2.85 18.673 3.221ZM8.709 11.0044H10C10.355 11.0044 10.684 11.1924 10.863 11.4994C11.043 11.8064 11.046 12.1854 10.871 12.4954L8.621 16.4904C8.438 16.8164 8.099 17.0004 7.749 17.0004C7.583 17.0004 7.414 16.9584 7.26 16.8714C6.778 16.6004 6.607 15.9904 6.879 15.5094L8.289 13.0044H7C6.645 13.0044 6.316 12.8164 6.137 12.5094C5.958 12.2034 5.954 11.8244 6.128 11.5144L8.378 7.5104C8.648 7.0284 9.257 6.8564 9.74 7.1284C10.222 7.3994 10.393 8.0084 10.122 8.4894L8.709 11.0044Z" fill="black"/>
</svg>

<svg xmlns="http://www.w3.org/2000/svg" width="24" height="24" fill="none" viewBox="0 0 24 24"><path fill="currentColor" fill-rule="evenodd" d="M3 22h11V4.003A2.005 2.005 0 0 0 11.997 2H4.999A2 2 0 0 0 3 3.999zM18.673 3.221l4 3.639A1 1 0 0 1 23 7.6v11.361c0 1.654-1.346 3-3 3s-3-1.346-3-3h-1V23a1 1 0 0 1-1 1H2a1 1 0 0 1-1-1V3.999A4.004 4.004 0 0 1 4.999 0h6.998A4.01 4.01 0 0 1 16 4.003v12.958h1c1.103 0 2 .897 2 2a1.001 1.001 0 0 0 2 0v-8a2.005 2.005 0 0 1-2-2.003V6.223l-1.673-1.522a1 1 0 0 1 1.346-1.48m-9.964 7.783H10a1 1 0 0 1 .871 1.491l-2.25 3.995a.999.999 0 1 1-1.742-.98l1.41-2.506H7a1 1 0 0 1-.872-1.49l2.25-4.004a1 1 0 0 1 1.362-.382c.482.271.653.88.382 1.361z" clip-rule="evenodd"/></svg>
